X:1
T: Arbor Way
C: R-44
M: C|
Z:
R: reel
P: D Mixolydian
K: DMix
"D"DEFG ABAF| "G"GABG "C"c2B2| "D"ABAF DFAF| "A7"GE2D E4|
"D"DEFG ABAF| "G"GABG "C"c2B2| "D"ABAF "A7"GEAG| "D"FD2C D4 :|
|:\
"D"defg fe (3def| "Am"edcB cBAB| "C"cdef gf (3efg| "D"fd2c d4 |
"D"defg fe (3def| "Am"edcB cBAB| "C"cdef gf (3efg| "A7"fae^c "D"d2A2 :|
%
